icons/reactjs-line.svg

<svg xmlns="http://www.w3.org/2000/svg" width="24" height="24" fill="none"><g clip-path="url(#a)"><g><path fill="#121212" d="M12 13.5001C11.6022 13.5001 11.2206 13.342 10.9393 13.0607C10.658 12.7794 10.5 12.3979 10.5 12.0001C10.5 11.6022 10.658 11.2207 10.9393 10.9394C11.2206 10.6581 11.6022 10.5001 12 10.5001C12.3978 10.5001 12.7794 10.6581 13.0607 10.9394C13.342 11.2207 13.5 11.6022 13.5 12.0001C13.5 12.3979 13.342 12.7794 13.0607 13.0607C12.7794 13.342 12.3978 13.5001 12 13.5001ZM11.472 16.4941C11.647 16.7041 11.823 16.9081 12 17.1031C12.177 16.9081 12.353 16.7051 12.528 16.4941C12.176 16.5015 11.824 16.5015 11.472 16.4941ZM9.477 16.3691C8.70906 16.2891 7.9462 16.1663 7.192 16.0011C7.117 16.3511 7.06 16.6911 7.022 17.0171C6.832 18.6001 7.097 19.5621 7.5 19.7941C7.903 20.0271 8.868 19.7751 10.145 18.8201C10.408 18.6231 10.673 18.4041 10.939 18.1651C10.4185 17.5942 9.9304 16.9946 9.477 16.3691ZM16.808 16.0011C16.091 16.1611 15.325 16.2851 14.523 16.3691C14.0696 16.9946 13.5815 17.5942 13.061 18.1651C13.327 18.4051 13.592 18.6231 13.855 18.8201C15.132 19.7751 16.097 20.0271 16.5 19.7941C16.903 19.5621 17.167 18.6001 16.979 17.0171C16.9377 16.676 16.881 16.337 16.809 16.0011H16.808ZM18.258 15.6141C18.835 18.2531 18.532 20.3541 17.25 21.0941C15.968 21.8341 13.997 21.0461 12 19.2271C10.003 21.0461 8.032 21.8331 6.75 21.0931C5.468 20.3531 5.165 18.2531 5.741 15.6131C3.167 14.7941 1.5 13.4801 1.5 12.0001C1.5 10.5201 3.167 9.20705 5.741 8.38605C5.165 5.74705 5.468 3.64605 6.75 2.90605C8.032 2.16605 10.003 2.95405 12 4.77305C13.997 2.95405 15.968 2.16705 17.25 2.90705C18.532 3.64705 18.835 5.74705 18.259 8.38705C20.833 9.20605 22.5 10.5201 22.5 12.0001C22.5 13.4801 20.833 14.7931 18.259 15.6141H18.258ZM10.938 5.83505C10.6837 5.60486 10.4191 5.3863 10.145 5.18005C8.868 4.22505 7.903 3.97305 7.5 4.20605C7.097 4.43805 6.833 5.40005 7.021 6.98305C7.061 7.31005 7.117 7.64905 7.191 7.99905C7.94553 7.83379 8.70872 7.71093 9.477 7.63105C9.952 6.97805 10.442 6.37705 10.939 5.83505H10.938ZM14.523 7.63105C15.325 7.71505 16.091 7.84005 16.808 7.99905C16.883 7.64905 16.94 7.30905 16.978 6.98305C17.168 5.40005 16.903 4.43805 16.5 4.20605C16.097 3.97305 15.132 4.22505 13.855 5.18005C13.5806 5.38628 13.3156 5.60484 13.061 5.83505C13.558 6.37705 14.048 6.97805 14.523 7.63105ZM12.528 7.50605C12.353 7.29605 12.177 7.09205 12 6.89705C11.823 7.09205 11.647 7.29505 11.472 7.50605C11.824 7.49858 12.176 7.49858 12.528 7.50605ZM8.372 14.7041C8.18956 14.4032 8.01352 14.0984 7.844 13.7901C7.749 14.0471 7.661 14.3001 7.581 14.5511C7.838 14.6071 8.102 14.6581 8.371 14.7041H8.372ZM10.304 14.9381C11.4331 15.0219 12.5669 15.0219 13.696 14.9381C14.3332 14.002 14.9001 13.02 15.392 12.0001C14.9001 10.9801 14.3332 9.9981 13.696 9.06205C12.5669 8.97819 11.4331 8.97819 10.304 9.06205C9.6668 9.9981 9.09991 10.9801 8.608 12.0001C9.09991 13.02 9.6668 14.002 10.304 14.9381ZM16.156 10.2101C16.251 9.95305 16.339 9.70005 16.419 9.44905C16.1568 9.39216 15.8934 9.34115 15.629 9.29605C15.8111 9.59696 15.9868 9.9017 16.156 10.2101ZM6.13 9.83705C5.79 9.94705 5.468 10.0671 5.166 10.1971C3.701 10.8251 3 11.5351 3 12.0001C3 12.4651 3.7 13.1751 5.166 13.8031C5.468 13.9331 5.79 14.0531 6.13 14.1631C6.352 13.4631 6.627 12.7371 6.955 12.0001C6.63982 11.295 6.36439 10.5729 6.13 9.83705ZM7.58 9.44905C7.661 9.69905 7.749 9.95305 7.844 10.2091C8.01353 9.90102 8.18957 9.59662 8.372 9.29605C8.102 9.34205 7.838 9.39305 7.581 9.44905H7.58ZM17.87 14.1631C18.21 14.0531 18.532 13.9331 18.834 13.8031C20.299 13.1751 21 12.4651 21 12.0001C21 11.5351 20.3 10.8251 18.834 10.1971C18.5183 10.0626 18.1966 9.94243 17.87 9.83705C17.648 10.5371 17.373 11.2631 17.045 12.0001C17.373 12.7371 17.648 13.4621 17.87 14.1631ZM16.42 14.5511C16.339 14.3011 16.251 14.0471 16.156 13.7911C15.9865 14.0991 15.8104 14.4035 15.628 14.7041C15.898 14.6581 16.162 14.6071 16.419 14.5511H16.42Z"/></g></g><defs><clipPath id="a"><rect width="24" height="24" fill="white"/></clipPath></defs></svg>

<svg width="24" height="24" fill="none" xmlns="http://www.w3.org/2000/svg"><g clip-path="url(#a)"><path d="M12 13.5a1.5 1.5 0 1 1 0-3 1.5 1.5 0 0 1 0 3Zm-.528 2.994c.175.21.351.414.528.61.177-.196.353-.399.528-.61-.352.008-.704.008-1.056 0Zm-1.995-.125c-.768-.08-1.53-.203-2.285-.368-.075.35-.132.69-.17 1.016-.19 1.583.075 2.545.478 2.777.403.233 1.368-.019 2.645-.974.263-.197.528-.416.794-.655a20.49 20.49 0 0 1-1.462-1.796Zm7.331-.368a20.17 20.17 0 0 1-2.285.368 20.681 20.681 0 0 1-1.462 1.796c.266.24.531.458.794.655 1.277.955 2.242 1.207 2.645.974.403-.232.667-1.194.479-2.777a11.27 11.27 0 0 0-.17-1.016h-.001Zm1.45-.387c.577 2.64.274 4.74-1.008 5.48-1.282.74-3.253-.048-5.25-1.867-1.997 1.82-3.968 2.606-5.25 1.866-1.282-.74-1.585-2.84-1.009-5.48C3.167 14.794 1.5 13.48 1.5 12s1.667-2.793 4.241-3.614c-.576-2.639-.273-4.74 1.009-5.48 1.282-.74 3.253.048 5.25 1.867 1.997-1.819 3.968-2.606 5.25-1.866 1.282.74 1.585 2.84 1.009 5.48C20.833 9.206 22.5 10.52 22.5 12s-1.667 2.793-4.241 3.614h-.001Zm-7.32-9.779c-.254-.23-.519-.449-.793-.655-1.277-.955-2.242-1.207-2.645-.974-.403.232-.667 1.194-.479 2.777.04.327.096.666.17 1.016a20.68 20.68 0 0 1 2.286-.368c.475-.653.965-1.254 1.462-1.796h-.001Zm3.585 1.796c.802.084 1.568.209 2.285.368.075-.35.132-.69.17-1.016.19-1.583-.075-2.545-.478-2.777-.403-.233-1.368.02-2.645.974-.274.206-.54.425-.794.655.497.542.987 1.143 1.462 1.796Zm-1.995-.125c-.175-.21-.351-.414-.528-.609-.177.195-.353.398-.528.609.352-.007.704-.007 1.056 0Zm-4.156 7.198c-.182-.3-.358-.606-.528-.914-.095.257-.183.51-.263.761.257.056.521.107.79.153h.001Zm1.932.234a22.86 22.86 0 0 0 3.392 0A22.902 22.902 0 0 0 15.392 12a22.892 22.892 0 0 0-1.696-2.938 22.898 22.898 0 0 0-3.392 0A22.893 22.893 0 0 0 8.608 12a22.903 22.903 0 0 0 1.696 2.938Zm5.852-4.728c.095-.257.183-.51.263-.761a17.999 17.999 0 0 0-.79-.153c.182.301.358.606.527.914ZM6.13 9.837c-.34.11-.662.23-.964.36C3.701 10.825 3 11.535 3 12c0 .465.7 1.175 2.166 1.803.302.13.624.25.964.36.222-.7.497-1.426.825-2.163a20.682 20.682 0 0 1-.825-2.163Zm1.45-.388c.081.25.169.504.264.76.17-.308.346-.612.528-.913-.27.046-.534.097-.791.153H7.58Zm10.29 4.714c.34-.11.662-.23.964-.36C20.299 13.175 21 12.465 21 12c0-.465-.7-1.175-2.166-1.803a11.358 11.358 0 0 0-.964-.36c-.222.7-.497 1.426-.825 2.163.328.737.603 1.462.825 2.163Zm-1.45.388a19.17 19.17 0 0 0-.264-.76c-.17.308-.346.612-.528.913.27-.046.534-.097.791-.153h.001Z" /></g><defs><clipPath id="a"><path fill="#fff" d="M0 0h24v24H0z"/></clipPath></defs></svg>
